theme/static/svg/Databaseicon.svg

<svg width="256" height="256" viewBox="0 0 256 256" fill="none" xmlns="http://www.w3.org/2000/svg">
<path d="M184.313 53.5545V73.6873C184.313 76.8931 182.505 80.4187 178.174 84.0776C173.859 87.723 167.407 91.1632 159.129 94.1206C142.603 100.025 119.543 103.742 93.9064 103.742C68.2699 103.742 45.21 100.025 28.6839 94.1206C20.4056 91.1632 13.9541 87.723 9.63901 84.0776C5.30794 80.4187 3.5 76.8931 3.5 73.6873V53.5545C3.5 50.3487 5.30794 46.8231 9.63901 43.1642C13.9541 39.5188 20.4056 36.0786 28.6839 33.1212C45.21 27.2172 68.2699 23.5 93.9064 23.5C119.543 23.5 142.603 27.2172 159.129 33.1212C167.407 36.0786 173.859 39.5188 178.174 43.1642C182.505 46.8231 184.313 50.3487 184.313 53.5545ZM166.015 113.349C172.571 111.015 178.826 108.165 184.313 104.755V140.796C184.313 144.002 182.505 147.528 178.174 151.187C173.859 154.832 167.407 158.272 159.129 161.23C142.603 167.134 119.543 170.851 93.9064 170.851C68.2699 170.851 45.21 167.134 28.6839 161.23C20.4056 158.272 13.9541 154.832 9.63901 151.187C5.30794 147.528 3.5 144.002 3.5 140.796V104.773C8.99395 108.192 15.2511 111.018 21.7982 113.349C41.0874 120.226 66.5724 124.164 93.9064 124.164C121.24 124.164 146.725 120.226 166.015 113.349ZM166.013 180.458C172.57 178.124 178.825 175.275 184.313 171.864V201.195C184.313 204.4 182.505 207.926 178.174 211.585C173.859 215.23 167.407 218.67 159.129 221.628C142.603 227.532 119.543 231.249 93.9064 231.249C68.2699 231.249 45.21 227.532 28.6839 221.628C20.4056 218.67 13.9541 215.23 9.63901 211.585C5.30794 207.926 3.5 204.4 3.5 201.195V171.882C8.99442 175.302 15.2522 178.128 21.7999 180.458C41.0889 187.335 66.5732 191.273 93.9064 191.273C121.24 191.273 146.724 187.335 166.013 180.458Z" fill="white" stroke="#293C47" stroke-width="7"/>
<ellipse cx="188.163" cy="153.427" rx="23.9483" ry="23.9485" fill="white"/>
<path d="M251.633 127.552L252.338 129.465C252.709 130.471 252.428 131.7 251.489 132.541L251.481 132.549L251.473 132.556L239.324 143.594L237.967 144.827L238.208 146.645C238.498 148.826 238.655 151.054 238.655 153.3C238.655 155.547 238.498 157.774 238.208 159.956L237.967 161.774L239.324 163.007L251.473 174.045L251.481 174.052L251.489 174.059C252.428 174.901 252.709 176.13 252.338 177.136C251.173 180.28 249.768 183.301 248.146 186.226L246.858 188.443C245.102 191.361 243.133 194.124 240.974 196.733L240.969 196.739L240.964 196.744C240.31 197.542 239.103 197.931 237.855 197.534L237.854 197.534L222.226 192.575L220.485 192.023L219.036 193.135C215.517 195.836 211.633 198.089 207.492 199.789L205.796 200.486L205.403 202.277L201.896 218.271C201.896 218.272 201.896 218.272 201.896 218.273C201.614 219.549 200.686 220.386 199.646 220.556L199.634 220.558C195.951 221.171 192.159 221.491 188.284 221.491C184.408 221.491 180.616 221.171 176.934 220.558L176.921 220.556C175.881 220.386 174.952 219.548 174.671 218.271L171.164 202.277L170.771 200.486L169.075 199.789C164.934 198.089 161.05 195.836 157.531 193.135L156.078 192.02L154.334 192.577L138.74 197.562C138.739 197.562 138.739 197.563 138.738 197.563C137.518 197.949 136.292 197.563 135.618 196.757C133.46 194.15 131.492 191.388 129.738 188.471L128.45 186.254C126.827 183.329 125.422 180.307 124.257 177.162C123.887 176.157 124.168 174.929 125.106 174.087L125.114 174.08L125.122 174.073L137.271 163.035L138.626 161.804L138.388 159.989C138.098 157.775 137.941 155.546 137.941 153.3C137.941 151.054 138.098 148.826 138.387 146.645L138.629 144.827L137.271 143.594L125.122 132.556L125.114 132.549L125.106 132.541C124.168 131.7 123.887 130.473 124.256 129.467C125.421 126.322 126.826 123.3 128.45 120.375L129.738 118.158C131.493 115.24 133.462 112.476 135.622 109.868L135.626 109.862L135.631 109.856C136.286 109.059 137.492 108.67 138.74 109.067L138.741 109.067L154.369 114.026L156.11 114.578L157.559 113.466C161.078 110.765 164.962 108.512 169.103 106.811L170.799 106.115L171.192 104.323L174.699 88.3296C174.699 88.3293 174.699 88.3289 174.699 88.3286C174.98 87.0524 175.909 86.2144 176.949 86.0451L176.968 86.0421L176.986 86.039C180.653 85.4022 184.436 85.082 188.312 85.082C192.187 85.082 195.979 85.4022 199.662 86.0151L199.674 86.0171C200.714 86.1864 201.644 87.0248 201.925 88.3016L205.431 104.295L205.824 106.087L207.52 106.783C211.661 108.484 215.545 110.737 219.064 113.438L220.513 114.55L222.254 113.998L237.882 109.039L237.883 109.039C239.104 108.651 240.331 109.037 241.005 109.844C243.163 112.451 245.131 115.213 246.885 118.13L248.174 120.347C249.47 122.682 250.627 125.079 251.633 127.552ZM188.312 179.212C195.191 179.212 201.79 176.484 206.657 171.625C211.523 166.766 214.258 160.174 214.258 153.3C214.258 146.426 211.523 139.835 206.657 134.976C201.79 130.117 195.191 127.388 188.312 127.388C181.432 127.388 174.833 130.117 169.967 134.976C165.1 139.835 162.365 146.426 162.365 153.3C162.365 160.174 165.1 166.766 169.967 171.625C174.833 176.484 181.432 179.212 188.312 179.212Z" fill="white" stroke="#293C47" stroke-width="7"/>
</svg>

<svg xmlns="http://www.w3.org/2000/svg" width="256" height="256" fill="#fff" xmlns:v="https://vecta.io/nano"><path d="M184.313 53.555v20.133c0 3.206-1.808 6.731-6.139 10.39-4.315 3.645-10.767 7.086-19.045 10.043-16.526 5.904-39.586 9.621-65.223 9.621s-48.696-3.717-65.222-9.621c-8.278-2.957-14.73-6.398-19.045-10.043C5.308 80.419 3.5 76.893 3.5 73.687V53.555c0-3.206 1.808-6.731 6.139-10.39 4.315-3.645 10.767-7.086 19.045-10.043C45.21 27.217 68.27 23.5 93.906 23.5s48.697 3.717 65.223 9.621c8.278 2.957 14.73 6.398 19.045 10.043 4.331 3.659 6.139 7.185 6.139 10.39zm-18.298 59.795c6.556-2.334 12.811-5.184 18.298-8.594v36.041c0 3.206-1.808 6.732-6.139 10.391-4.315 3.645-10.767 7.085-19.045 10.043-16.526 5.904-39.586 9.621-65.223 9.621s-48.696-3.717-65.222-9.621c-8.278-2.958-14.73-6.398-19.045-10.043-4.331-3.659-6.139-7.185-6.139-10.391v-36.023c5.494 3.419 11.751 6.245 18.298 8.576 19.289 6.877 44.774 10.815 72.108 10.815s52.819-3.938 72.109-10.815zm0 67.109c6.556-2.334 12.811-5.184 18.298-8.594v29.331c0 3.205-1.808 6.731-6.139 10.39-4.315 3.645-10.767 7.085-19.045 10.043-16.526 5.904-39.586 9.621-65.223 9.621s-48.696-3.717-65.222-9.621c-8.278-2.958-14.73-6.398-19.045-10.043-4.331-3.659-6.139-7.185-6.139-10.39v-29.313c5.494 3.419 11.751 6.245 18.298 8.576 19.289 6.877 44.774 10.815 72.108 10.815s52.819-3.938 72.109-10.815z" stroke="#293c47" stroke-width="7"/><circle cx="188.163" cy="153.427" r="23.948"/><path d="M252.338 129.465l-.705-1.913c-1.006-2.472-2.163-4.869-3.459-7.205l-1.289-2.217c-1.754-2.917-3.722-5.679-5.88-8.286-.674-.807-1.901-1.193-3.122-.805h-.001l-15.628 4.959-1.741.552-1.449-1.112c-3.519-2.701-7.403-4.954-11.544-6.655l-1.696-.696-.393-1.792-3.506-15.993 50.413 41.163zm0 0c.371 1.006.09 2.235-.849 3.076l-.008.008m.857-3.084l-.857 3.084m0 0l-.008.007m.008-.007l-.008.007m0 0l-12.149 11.038-1.357 1.233m13.506-12.271l-13.506 12.271m0 0l.241 1.818m-.241-1.818l.241 1.818m0 0c.29 2.181.447 4.409.447 6.655a50.56 50.56 0 0 1-.447 6.656l-.241 1.818m.241-15.129l-.241 15.129m0 0l1.357 1.233m-1.357-1.233l1.357 1.233m0 0l12.149 11.038.008.007m-12.157-11.045l12.157 11.045m0 0l.008.007m-.008-.007l.008.007m0 0c.939.842 1.22 2.071.849 3.077-1.165 3.144-2.57 6.165-4.192 9.09l-1.288 2.217c-1.756 2.918-3.725 5.681-5.884 8.29l-.005.006m10.52-22.68l-10.52 22.68m0 0l-.005.005m.005-.005l-.005.005m0 0c-.654.798-1.861 1.187-3.109.79h-.001m3.11-.79l-3.11.79m0 0l-15.628-4.959-1.741-.552m17.369 5.511l-17.369-5.511m0 0l-1.449 1.112m1.449-1.112l-1.449 1.112m0 0c-3.519 2.701-7.403 4.954-11.544 6.654l-1.696.697m13.24-7.351l-13.24 7.351m0 0l-.393 1.791m.393-1.791l-.393 1.791m0 0l-3.506 15.994c-.283 1.278-1.212 2.115-2.251 2.285l-.012.002m5.769-18.281l-5.769 18.281m0 0c-3.683.613-7.475.933-11.35.933a69.08 69.08 0 0 1-11.35-.933l-.013-.002m22.713.002l-22.713-.002m0 0c-1.04-.17-1.969-1.008-2.25-2.285l-3.507-15.994-.393-1.791m6.15 20.07l-6.15-20.07m0 0l-1.696-.697m1.696.697l-1.696-.697m0 0c-4.141-1.7-8.025-3.953-11.544-6.654l-1.453-1.115m12.997 7.769l-12.997-7.769m0 0l-1.744.557m1.744-.557l-1.744.557m0 0l-15.594 4.985c-1.224.387-2.449.001-3.122-.806-2.158-2.607-4.126-5.368-5.88-8.285l-1.288-2.217c-1.624-2.926-3.029-5.947-4.194-9.093-.369-1.005-.088-2.233.85-3.074l.008-.007m29.22 18.497l-29.22-18.497m0 0l.008-.007m-.008.007l.008-.007m0 0l12.149-11.038 1.355-1.231m-13.504 12.269l13.504-12.269m0 0l-.238-1.815m.238 1.815l-.238-1.815m0 0a51.45 51.45 0 0 1-.447-6.689c0-2.246.157-4.474.446-6.655l.242-1.818m-.241 15.162l.241-15.162m0 0l-1.358-1.233m1.358 1.233l-1.358-1.233m0 0l-12.149-11.038-.008-.007m12.157 11.045l-12.157-11.045m0 0l-.008-.008m.008.008l-.008-.008m0 0c-.938-.841-1.219-2.069-.85-3.074 1.165-3.145 2.571-6.167 4.194-9.092l1.288-2.217c1.755-2.918 3.724-5.682 5.884-8.29l.004-.006m-10.52 22.679l10.52-22.679m0 0l.005-.006m-.005.006l.005-.006m0 0c.655-.797 1.861-1.186 3.109-.789h.001m-3.11.789l3.11-.789m0 0l15.628 4.959 1.741.552m-17.369-5.511l17.369 5.511m0 0l1.449-1.112m-1.449 1.112l1.449-1.112m0 0c3.519-2.701 7.403-4.954 11.544-6.655l1.696-.696m-13.24 7.351l13.24-7.351m0 0l.393-1.792m-.393 1.792l.393-1.792m0 0l3.507-15.993c.282-1.277 1.211-2.115 2.25-2.284l.019-.003m-5.776 18.281l5.776-18.281m0 0l.018-.003m-.018.003l.018-.003m0 0c3.667-.637 7.45-.957 11.326-.957s7.667.32 11.35.933l.012.002m-22.688.022l22.688-.022m0 0c1.039.169 1.968 1.007 2.25 2.282l-2.25-2.282zm-11.362 93.195c6.879 0 13.478-2.728 18.345-7.587s7.601-11.451 7.601-18.325-2.735-13.465-7.601-18.324-11.466-7.588-18.345-7.588-13.479 2.729-18.345 7.588a25.89 25.89 0 0 0-7.602 18.324c0 6.874 2.735 13.466 7.602 18.325a25.96 25.96 0 0 0 18.345 7.587z" stroke="#293c47" stroke-width="7"/></svg>
